X: 159
T: King of the Keys (hp)
T: Felix Dolan's
N: 111201
C: BB
L: 1/8
Q: 330
M: C|
R: hornpipe
K: G
dc|"G"BcBA G2 dc|"G"BcBA G2 AG|"D"FAFE D2 AG|"D"FAFE D2 ED|
"C"CEGE "D"DFAF|"G"GBdB "Am"ceag|"D"fd^cd "Am"=cAFG|"D"(3ABA FA "G"G2 :|
Bc|"G"dgfg "Em"edBc|"G"dgfg "Em"efga|"G"bged "Am"cAEF|"G"GdBG "D"A2 Bc|
"G"dgfg "C"eceg|"D"fdfa "Em"gfeB|"C"cBAG EFGc|"D"(3ABA FA "G"G2 :|
%%%%%%%%%%%%%%%%%%%%%%%%%%%%%%%%%%%%%%%%%%%
